svgs/solid/dice-d8.svg

<svg xmlns="http://www.w3.org/2000/svg" viewBox="0 0 512 512"><!--! Font Awesome Pro 6.0.0-alpha3 by @fontawesome - https://fontawesome.com License - https://fontawesome.com/license (Commercial License) --><path d="M231.3 0c4.217 0 8.263 3.331 8.263 8.365v324.3L5.461 247.6C1.968 246.3 0 243 0 239.7c0-2.075 .7542-4.175 2.367-5.836L225.5 2.521C227.2 .779 229.3 0 231.3 0zM31.11 304.6c0-4.377 3.501-8.483 8.109-8.483c.9283 0 1.902 .1666 2.9 .5312l197.5 71.66v135.3C239.6 508.7 235.5 512 231.3 512c-2.038 0-4.116-.7791-5.795-2.52L33.52 310.4C31.84 308.6 31.11 306.6 31.11 304.6zM512 239.7c0 3.355-1.968 6.651-5.461 7.944l-234.1 85.03V8.396c0-5.057 4.049-8.395 8.268-8.395c2.038 0 4.116 .7791 5.795 2.52l223.2 231.3C511.2 235.5 512 237.6 512 239.7zM472.8 296.1c4.608 0 8.109 4.105 8.109 8.483c0 1.998-.7294 4.052-2.416 5.799l-192 199.1C284.8 511.2 282.7 512 280.7 512c-4.219 0-8.268-3.338-8.268-8.395V368.3l197.5-71.66C470.9 296.3 471.9 296.1 472.8 296.1z"/></svg>

<svg xmlns="http://www.w3.org/2000/svg" viewBox="0 0 512 512"><!-- Font Awesome Pro 6.0.0-alpha2 by @fontawesome - https://fontawesome.com License - https://fontawesome.com/license (Commercial License) --><path d="M231.33 0C235.547 0 239.593 3.331 239.593 8.365V332.66L5.461 247.594C1.968 246.32 0 243.031 0 239.679C0 237.604 0.754 235.504 2.367 233.843L225.53 2.521C227.211 0.779 229.29 0 231.33 0ZM31.109 304.579C31.109 300.202 34.61 296.096 39.218 296.096C40.147 296.096 41.12 296.263 42.119 296.627L239.593 368.287V503.605C239.593 508.662 235.544 512 231.326 512C229.288 512 227.21 511.221 225.53 509.48L33.525 310.378C31.838 308.631 31.109 306.577 31.109 304.579ZM512 239.681C512 243.036 510.032 246.332 506.539 247.625L272.407 332.66V8.396C272.407 3.339 276.456 0.001 280.674 0.001C282.712 0.001 284.79 0.78 286.47 2.521L509.633 233.843C511.246 235.504 512 237.604 512 239.681ZM472.782 296.096C477.39 296.096 480.891 300.202 480.891 304.579C480.891 306.577 480.162 308.631 478.475 310.378L286.47 509.48C284.79 511.221 282.712 512 280.674 512C276.456 512 272.407 508.662 272.407 503.605V368.287L469.881 296.627C470.88 296.263 471.853 296.096 472.782 296.096Z "></path></svg>
